!!!COM: Samuel Scheidt
!!!OPR: Tabulatura nova
!!!OTL: 9. Canon a 3 Voc. in 5. Magnificat VIII. Toni.
!!!YOR: S. Scheidt, Werke, edited by G. Harms and C. Mahrenholz
!!!YOR: Vol. VI/1, Hamburg (1923-1962).
**kern	**kern	**kern
*k[]	*k[]	*k[]
*M4/2	*M4/2	*M4/2
*CF	*conseq	*guida
*Trd7c12	*	*
!4'stop	!	!
=1	=1	=1
1G	2r	4.dd
.	.	8cc
.	4.g	4b
.	.	4ee
.	8f	.
1A	4e	2cc
.	4a	.
.	2f	4r
.	.	4a
=2	=2	=2
1G	4r	4b
.	4d	8dd
.	.	8cc
.	4e	8b
.	.	8cc
.	8g	8b
.	8f	8a
1c	8e	4g
.	8f	.
.	8e	4g
.	8d	.
.	4c	4e
.	4c	[4g
=3	=3	=3
1c	4A	8g]
.	.	8f
.	4.c	8e
.	.	8d
.	.	4c
.	8B	.
.	8A	4e
.	8G	.
1c	4F	2r
.	4A	.
.	2r	4a
.	.	4a
=4	=4	=4
1B	4d	4.dd
.	4d	.
.	.	8cc
.	4.g	4.b
.	8f	8a
1c	4.e	2g
.	8d	.
.	2c	4r
.	.	4cc
=5	=5	=5
(1d	4r	2a
.	4f	.
.	2d	4r
.	.	4dd
1c	4r	4ee
.	4g	4dd
.	4a	4cc
.	4g	4b
=6	=6	=6
1d)	4f	2a
.	4e	.
.	2d	2b
1c	2e	2cc
.	2f	2dd
=7	=7	=7
r1	2g	2.ee
.	2.a	.
.	.	4dd
1c	.	2ee
.	4g	.
.	2a	4r
.	.	4ee
=8	=8	=8
1d	4r	4dd
.	4a	4cc
.	4g	4b
.	4f	4dd
1c	4e	2g
.	4g	.
.	2c	4r
.	.	4g
=9	=9	=9
1r	4r	4g
.	4c	4e
.	4c	4r
.	4A	4.ee
2c	4r	.
.	.	8dd
.	4.a	8cc
.	.	8b
2c	.	2a
.	8g	.
.	8f	.
.	8e	.
=10	=10	=10
1B	2d	8r
.	.	8dd
.	.	8dd
.	.	8dd
.	8r	2b
.	8g	.
.	8g	.
.	8g	.
1c	2e	8r
.	.	8g
.	.	8a
.	.	8b
.	8r	4cc
.	8c	.
.	8d	4g
.	8e	.
=11	=11	=11
1A	4f	4r
.	4c	4e
.	4r	2a
.	4A	.
[1G	[1d	4b
.	.	4cc
.	.	4b
.	.	4a
=12	=12	=12
0G]	0d]	0b
==	==	==
*-	*-	*-
!!!CDT: 1587///-1654/3/30
!!!OCY: Deutschland
!!!ODT: 1624
!!!AFR: cantus firmus canon
!!!AST: polyphony
!!!AMT: simple quadruple
!!!AIN: vox
!!!YEP: David Huron and Denis Collins
!!!YEN: Canada
!!!EEV: 1.0
!!!RDT: 1995 April 29
!!!YED: 1995 August 31
